build/assets/images/svg/icons/lk/personal_account/money.svg

<svg width="48" height="48" viewBox="0 0 48 48" fill="none" xmlns="http://www.w3.org/2000/svg">
<rect width="48" height="48" rx="24" fill="#F4F7FB"/>
<path fill-rule="evenodd" clip-rule="evenodd" d="M17.2248 15C15.4438 15 14 16.4438 14 18.2248V29C14 31.2091 15.7909 33 18 33H30C32.2091 33 34 31.2091 34 29V22.5556C34 20.3468 32.2105 18.5556 30.001 18.5556H26.8897C26.8498 18.4969 26.8038 18.4222 26.7518 18.3291C26.6109 18.0772 26.4738 17.7811 26.3166 17.4415C26.2793 17.3609 26.2409 17.2779 26.201 17.1924C26.0098 16.7827 25.7781 16.3015 25.5099 15.9198C25.2873 15.6029 24.8009 15 24.0138 15H17.2248ZM24.4876 18.2518C24.5332 18.3504 24.5804 18.4524 24.6288 18.5556H16V18.2248C16 17.5483 16.5483 17 17.2248 17H23.8219C23.8368 17.0188 23.854 17.0418 23.8734 17.0695C24.026 17.2867 24.1903 17.6132 24.3886 18.0382C24.4206 18.1068 24.4537 18.1784 24.4876 18.2518ZM18 31C16.8954 31 16 30.1046 16 29V20.5556H26.4782C26.4808 20.5556 26.4834 20.5557 26.4861 20.5557C26.4975 20.5558 26.5089 20.5558 26.5203 20.5556H30.001C31.1051 20.5556 32 21.4506 32 22.5556V23H30C28.3431 23 27 24.3431 27 26C27 27.6569 28.3431 29 30 29H32C32 30.1046 31.1046 31 30 31H18ZM29 26C29 25.4477 29.4477 25 30 25H32V27H30C29.4477 27 29 26.5523 29 26ZM23.7514 16.9232C23.7514 16.9227 23.7555 16.9257 23.7637 16.9336C23.7555 16.9277 23.7514 16.9237 23.7514 16.9232Z" fill="#203686"/>
</svg>

<svg width="48" height="48" fill="none" xmlns="http://www.w3.org/2000/svg"><rect width="48" height="48" rx="24" fill="#F4F7FB"/><path fill-rule="evenodd" clip-rule="evenodd" d="M17.225 15A3.225 3.225 0 0014 18.225V29a4 4 0 004 4h12a4 4 0 004-4v-6.444a4 4 0 00-3.999-4H26.89a3.073 3.073 0 01-.138-.227c-.141-.252-.278-.548-.435-.887l-.116-.25c-.191-.41-.423-.89-.691-1.272-.223-.317-.71-.92-1.496-.92h-6.79zm7.263 3.252l.14.304H16v-.331c0-.677.548-1.225 1.225-1.225h6.597c.015.019.032.042.051.07.153.217.317.543.516.968l.099.214zM18 31a2 2 0 01-2-2v-8.444h14.001a2 2 0 011.999 2V23h-2a3 3 0 100 6h2a2 2 0 01-2 2H18zm11-5a1 1 0 011-1h2v2h-2a1 1 0 01-1-1zm-5.249-9.077l.013.01a.059.059 0 01-.013-.01z" fill="#203686"/></svg>
